tellnet/images/service-images/video-img.svg

<svg width="80" height="80" viewBox="0 0 80 80" fill="none" xmlns="http://www.w3.org/2000/svg">
<path d="M58.6533 75.4976C51.0643 79.4246 42.4151 80.8348 33.9656 79.5228C25.5162 78.2108 17.7079 74.2451 11.6783 68.2035C5.64881 62.1619 1.71301 54.3599 0.444333 45.9343C-0.824341 37.5087 0.640388 28.8995 4.62514 21.3611C8.60989 13.8227 14.9065 7.74886 22.5976 4.02441C30.2887 0.299963 38.9725 -0.880481 47.384 0.655038C55.7954 2.19056 63.495 6.36181 69.3611 12.5611C75.2272 18.7605 78.9532 26.664 79.9965 35.1202C80.0039 35.179 79.9996 35.2386 79.9838 35.2957C79.9681 35.3528 79.9412 35.4062 79.9047 35.4529C79.8681 35.4996 79.8227 35.5387 79.771 35.5679C79.7193 35.5971 79.6623 35.6158 79.6033 35.623C79.5443 35.6302 79.4845 35.6257 79.4272 35.6098C79.37 35.5939 79.3165 35.5669 79.2697 35.5304C79.223 35.4938 79.1839 35.4484 79.1548 35.3968C79.1257 35.3452 79.1071 35.2883 79.1001 35.2295C78.0853 26.9508 74.443 19.2114 68.7041 13.1395C62.9653 7.06765 55.4299 2.98067 47.1965 1.47436C38.963 -0.0319521 30.4619 1.12116 22.9322 4.76559C15.4026 8.41002 9.23813 14.3552 5.33738 21.7347C1.43664 29.1141 0.00354826 37.5419 1.24701 45.7896C2.49048 54.0373 6.3455 61.6737 12.2501 67.5857C18.1548 73.4977 25.8003 77.3762 34.0723 78.6559C42.3443 79.9355 50.8103 78.5494 58.2363 74.6996C58.2889 74.672 58.3465 74.6549 58.4058 74.6495C58.465 74.6441 58.5247 74.6505 58.5815 74.6682C58.6383 74.6858 58.691 74.7145 58.7366 74.7526C58.7823 74.7906 58.8199 74.8372 58.8474 74.8898C58.8748 74.9424 58.8916 74.9999 58.8967 75.0589C58.9018 75.118 58.8952 75.1774 58.8771 75.2339C58.8591 75.2904 58.83 75.3428 58.7916 75.388C58.7532 75.4333 58.7062 75.4705 58.6533 75.4976V75.4976Z" fill="white"/>
<path d="M57.3167 72.9108C50.5693 76.3806 42.9273 77.739 35.3918 76.8081C27.8564 75.8771 20.7789 72.7001 15.0865 67.6934C14.9976 67.6139 14.9439 67.5026 14.9372 67.3838C14.9305 67.265 14.9713 67.1484 15.0507 67.0596C15.1301 66.9707 15.2416 66.9167 15.3608 66.9096C15.4801 66.9024 15.5972 66.9426 15.6868 67.0214C20.6684 71.4391 26.7674 74.4158 33.3243 75.6296C39.8813 76.8434 46.6465 76.248 52.8883 73.9079C59.1302 71.5679 64.6111 67.5721 68.7383 62.3528C72.8656 57.1335 75.482 50.8893 76.3047 44.2955C77.1274 37.7018 76.1251 31.0094 73.4061 24.9422C70.687 18.8749 66.3549 13.6638 60.8781 9.87234C55.4012 6.08089 48.9882 3.85341 42.3326 3.43081C35.677 3.00821 29.032 4.40657 23.1164 7.47466C23.0638 7.50211 23.0063 7.51893 22.9472 7.5242C22.888 7.52946 22.8284 7.52305 22.7718 7.50533C22.7151 7.48761 22.6625 7.45893 22.617 7.42093C22.5715 7.38293 22.5339 7.33636 22.5065 7.28389C22.4791 7.23142 22.4623 7.17408 22.4572 7.11514C22.452 7.0562 22.4586 6.99682 22.4765 6.94042C22.4944 6.88401 22.5233 6.83168 22.5616 6.78642C22.5998 6.74116 22.6466 6.70386 22.6994 6.67665C27.0647 4.40934 31.8356 3.02115 36.7396 2.59137C41.6436 2.1616 46.5845 2.69866 51.2801 4.17189C55.9757 5.64512 60.334 8.02564 64.1059 11.1775C67.8778 14.3293 70.9895 18.1906 73.2632 22.5409C75.5369 26.8912 76.928 31.6452 77.3571 36.5313C77.7862 41.4174 77.2448 46.3398 75.764 51.0174C74.2831 55.695 71.8917 60.036 68.7265 63.7926C65.5612 67.5491 61.6841 70.6475 57.3167 72.9108V72.9108Z" fill="white"/>
<path d="M48.68 52.7211H26.1038C25.5053 52.7204 24.9314 52.4832 24.5082 52.0615C24.085 51.6398 23.8469 51.0681 23.8462 50.4718V33.3772C23.8469 32.7809 24.085 32.2092 24.5082 31.7875C24.9314 31.3658 25.5053 31.1286 26.1038 31.1279H48.68C49.2785 31.1286 49.8524 31.3658 50.2756 31.7875C50.6988 32.2092 50.9369 32.7809 50.9376 33.3772V50.4718C50.9369 51.0681 50.6988 51.6398 50.2756 52.0615C49.8524 52.4832 49.2785 52.7204 48.68 52.7211ZM26.1038 32.0276C25.7447 32.028 25.4004 32.1703 25.1464 32.4234C24.8925 32.6764 24.7496 33.0194 24.7492 33.3772V50.4718C24.7496 50.8296 24.8925 51.1726 25.1464 51.4257C25.4004 51.6787 25.7447 51.821 26.1038 51.8214H48.68C49.0391 51.821 49.3834 51.6787 49.6374 51.4257C49.8913 51.1726 50.0342 50.8296 50.0346 50.4718V33.3772C50.0342 33.0194 49.8913 32.6764 49.6374 32.4234C49.3834 32.1703 49.0391 32.028 48.68 32.0276H26.1038Z" fill="white"/>
<path d="M61.7743 51.8214H57.9637C57.1164 51.8229 56.2901 51.559 55.6016 51.0671L50.0347 47.1045V38.526L56.5924 34.4426C57.2381 34.04 57.9846 33.8268 58.7463 33.8271H61.7743L61.7743 51.8214ZM50.9377 46.6415L56.1263 50.3352C56.6619 50.7177 57.3047 50.9228 57.9637 50.9217H60.8712V34.7269H58.7464C58.154 34.7267 57.5735 34.8925 57.0712 35.2053L50.9377 39.0251V46.6415Z" fill="white"/>
<path d="M45.9709 35.627H36.9404V36.5267H45.9709V35.627Z" fill="white"/>
<path d="M39.1979 48.2225H28.3613V42.8242H39.1979V48.2225ZM29.2644 47.3228H38.2949V43.7239H29.2644V47.3228Z" fill="white"/>
<path d="M35.5857 30.6784H34.6826V27.0796C34.6826 26.9603 34.635 26.8459 34.5503 26.7615C34.4656 26.6772 34.3508 26.6298 34.2311 26.6297H31.522V25.73H34.2311C34.5902 25.7304 34.9346 25.8727 35.1885 26.1257C35.4425 26.3787 35.5853 26.7217 35.5857 27.0796V30.6784Z" fill="white"/>
<path d="M40.1009 30.6784H39.1979V25.2802C39.1969 24.4453 38.8635 23.6449 38.271 23.0546C37.6785 22.4643 36.8752 22.1322 36.0372 22.1312H31.522V21.2314H36.0372C37.1146 21.2326 38.1476 21.6596 38.9094 22.4186C39.6712 23.1776 40.0997 24.2067 40.1009 25.2802V30.6784Z" fill="white"/>
<path d="M27.9096 29.3288H21.1367V18.5322H27.9096C28.987 18.5334 30.0199 18.9603 30.7818 19.7194C31.5436 20.4784 31.9721 21.5075 31.9733 22.5809V25.2801C31.9721 26.3535 31.5436 27.3826 30.7818 28.1417C30.0199 28.9007 28.987 29.3276 27.9096 29.3288ZM22.0398 28.4291H27.9096C28.7475 28.4281 29.5509 28.096 30.1434 27.5057C30.7359 26.9153 31.0692 26.1149 31.0702 25.2801V22.5809C31.0692 21.7461 30.7359 20.9457 30.1434 20.3554C29.5509 19.765 28.7475 19.433 27.9096 19.4319H22.0398V28.4291Z" fill="white"/>
<path d="M35.191 58.1197H28.8128C28.2143 58.119 27.6404 57.8818 27.2172 57.4601C26.794 57.0385 26.5559 56.4668 26.5552 55.8704V52.2716H27.4582V55.8704C27.4586 56.2282 27.6015 56.5713 27.8554 56.8243C28.1093 57.0773 28.4537 57.2196 28.8128 57.22H35.191C35.3897 57.2203 35.5861 57.1769 35.766 57.0929C35.946 57.0089 36.1051 56.8864 36.2321 56.7341L40.2054 51.9834L40.8994 52.5598L36.9261 57.3101C36.7144 57.5638 36.4492 57.7679 36.1493 57.9078C35.8494 58.0478 35.5222 58.1201 35.191 58.1197Z" fill="white"/>
<path d="M27.007 22.1309H24.2979V23.0306H27.007V22.1309Z" fill="white"/>
<path d="M27.007 24.8301H24.2979V25.7298H27.007V24.8301Z" fill="white"/>
</svg>

<?xml version="1.0" encoding="UTF-8" standalone="no"?>
<svg width="80" xmlns="http://www.w3.org/2000/svg" viewBox="0 0 80 80" height="80">
 <path d="m58.653 75.498c-7.589 3.927-16.238 5.337-24.687 4.025-8.45-1.312-16.258-5.278-22.288-11.319-6.0292-6.042-9.965-13.844-11.234-22.27-1.2683-8.425 0.19639-17.034 4.1811-24.573 3.9848-7.538 10.281-13.612 17.973-17.337 7.691-3.724 16.374-4.9045 24.786-3.369 8.411 1.5356 16.111 5.7068 21.977 11.906 5.866 6.199 9.592 14.103 10.635 22.559 0.008 0.059 0.004 0.119-0.012 0.176s-0.043 0.11-0.079 0.157c-0.037 0.047-0.082 0.086-0.134 0.115s-0.109 0.048-0.168 0.055-0.119 0.003-0.176-0.013-0.111-0.043-0.157-0.08c-0.047-0.036-0.086-0.082-0.115-0.133-0.029-0.052-0.048-0.109-0.055-0.167-1.015-8.279-4.657-16.019-10.396-22.09-5.739-6.0724-13.274-10.159-21.508-11.666-8.233-1.506-16.734-0.3528-24.264 3.2916-7.529 3.6444-13.694 9.5894-17.595 16.969-3.9004 7.379-5.3335 15.807-4.09 24.055 1.2435 8.247 5.0985 15.884 11.003 21.796 5.905 5.912 13.55 9.79 21.822 11.07s16.738-0.107 24.164-3.956c0.053-0.028 0.11-0.045 0.17-0.05 0.059-0.006 0.119 0 0.176 0.018 0.056 0.018 0.109 0.046 0.155 0.085 0.045 0.038 0.083 0.084 0.11 0.137 0.028 0.052 0.045 0.11 0.05 0.169s-0.002 0.118-0.02 0.175c-0.018 0.056-0.047 0.109-0.085 0.154-0.039 0.045-0.086 0.082-0.139 0.11z" fill="#fff"/>
 <path d="m57.317 72.911c-6.748 3.47-14.39 4.828-21.925 3.897-7.536-0.931-14.613-4.108-20.306-9.115-0.088-0.079-0.142-0.19-0.149-0.309s0.034-0.236 0.114-0.324c0.079-0.089 0.191-0.143 0.31-0.15 0.119-0.008 0.236 0.033 0.326 0.111 4.981 4.418 11.08 7.395 17.637 8.609 6.557 1.213 13.322 0.618 19.564-1.722s11.723-6.336 15.85-11.555c4.128-5.219 6.744-11.464 7.567-18.057 0.822-6.594-0.18-13.287-2.899-19.354s-7.051-11.278-12.528-15.07c-5.477-3.7911-11.89-6.0186-18.545-6.4412-6.656-0.4226-13.301 0.9758-19.217 4.0439-0.052 0.0274-0.11 0.0442-0.169 0.0495s-0.119-0.0012-0.175-0.0189c-0.057-0.0177-0.11-0.0464-0.155-0.0844s-0.083-0.0845-0.111-0.137c-0.027-0.0525-0.044-0.1098-0.049-0.1688-0.005-0.0589 0.002-0.1183 0.019-0.1747 0.018-0.0564 0.047-0.1087 0.086-0.154 0.038-0.0452 0.085-0.0825 0.137-0.1098 4.366-2.2673 9.137-3.6554 14.041-4.0852s9.844 0.1073 14.54 1.5805 9.054 3.8537 12.826 7.0061c3.772 3.151 6.884 7.013 9.157 11.363 2.274 4.35 3.665 9.104 4.094 13.99s-0.112 9.809-1.593 14.486c-1.481 4.678-3.872 9.019-7.038 12.776-3.165 3.756-7.042 6.855-11.409 9.118z" fill="#fff"/>
 <path d="m48.68 52.721h-22.576c-0.599-0.001-1.173-0.238-1.596-0.659-0.423-0.422-0.661-0.994-0.662-1.59v-17.095c0.001-0.596 0.239-1.168 0.662-1.589 0.423-0.422 0.997-0.659 1.596-0.66h22.576c0.598 0.001 1.172 0.238 1.596 0.66 0.423 0.421 0.661 0.993 0.662 1.589v17.095c-0.001 0.596-0.239 1.168-0.662 1.59-0.424 0.421-0.998 0.658-1.596 0.659zm-22.576-20.693c-0.359 0-0.704 0.142-0.958 0.395s-0.396 0.596-0.397 0.954v17.095c0.001 0.358 0.143 0.701 0.397 0.954s0.599 0.395 0.958 0.395h22.576c0.359 0 0.703-0.142 0.957-0.395s0.397-0.596 0.398-0.954v-17.095c-0.001-0.358-0.144-0.701-0.398-0.954s-0.598-0.395-0.957-0.395h-22.576z" fill="#fff"/>
 <path d="m61.774 51.821h-3.81c-0.848 0.002-1.674-0.262-2.362-0.754l-5.567-3.963v-8.578l6.557-4.083c0.646-0.403 1.393-0.616 2.154-0.616h3.028v17.994zm-10.836-5.179l5.188 3.693c0.536 0.383 1.179 0.588 1.838 0.587h2.907v-16.195h-2.125c-0.592 0-1.172 0.165-1.675 0.478l-6.133 3.82v7.617z" fill="#fff"/>
 <path d="m45.971 35.627h-9.031v0.9h9.031v-0.9z" fill="#fff"/>
 <path d="m39.198 48.222h-10.837v-5.398h10.837v5.398zm-9.934-0.899h9.031v-3.599h-9.031v3.599z" fill="#fff"/>
 <path d="m35.586 30.678h-0.903v-3.598c0-0.12-0.048-0.234-0.133-0.318-0.084-0.085-0.199-0.132-0.319-0.132h-2.709v-0.9h2.709c0.359 0 0.704 0.143 0.957 0.396 0.254 0.253 0.397 0.596 0.398 0.954v3.598z" fill="#fff"/>
 <path d="m40.101 30.678h-0.903v-5.398c-0.001-0.835-0.334-1.635-0.927-2.225-0.593-0.591-1.396-0.923-2.234-0.924h-4.515v-0.9h4.515c1.078 0.002 2.111 0.429 2.872 1.188 0.762 0.759 1.191 1.788 1.192 2.861v5.398z" fill="#fff"/>
 <path d="m27.91 29.329h-6.773v-10.797h6.773c1.077 0.001 2.11 0.428 2.872 1.187s1.19 1.789 1.191 2.862v2.699c-0.001 1.074-0.429 2.103-1.191 2.862s-1.795 1.186-2.872 1.187zm-5.87-0.9h5.87c0.838-0.001 1.641-0.333 2.233-0.923 0.593-0.591 0.926-1.391 0.927-2.226v-2.699c-0.001-0.835-0.334-1.635-0.927-2.226-0.592-0.59-1.395-0.922-2.233-0.923h-5.87v8.997z" fill="#fff"/>
 <path d="m35.191 58.12h-6.378c-0.599-0.001-1.173-0.238-1.596-0.66s-0.661-0.993-0.662-1.59v-3.598h0.903v3.598c0.001 0.358 0.144 0.701 0.397 0.954 0.254 0.253 0.599 0.396 0.958 0.396h6.378c0.199 0 0.395-0.043 0.575-0.127s0.339-0.207 0.466-0.359l3.973-4.751 0.694 0.577-3.973 4.75c-0.212 0.254-0.477 0.458-0.777 0.598s-0.627 0.212-0.958 0.212z" fill="#fff"/>
 <path d="m27.007 22.131h-2.709v0.9h2.709v-0.9z" fill="#fff"/>
 <path d="m27.007 24.83h-2.709v0.9h2.709v-0.9z" fill="#fff"/>
</svg>
